papirus/16x16/mimetypes/application-x-virtualbox-vhd.svg

<?xml version="1.0" encoding="UTF-8" standalone="no"?>
<svg
   xmlns:dc="http://purl.org/dc/elements/1.1/"
   xmlns:cc="http://creativecommons.org/ns#"
   xmlns:rdf="http://www.w3.org/1999/02/22-rdf-syntax-ns#"
   xmlns:svg="http://www.w3.org/2000/svg"
   xmlns="http://www.w3.org/2000/svg"
   viewBox="0 0 16 16"
   version="1.1"
   width="16px"
   height="16px"
   id="svg2">
  <defs
     id="defs11" />
  <metadata
     id="metadata17">
    <rdf:RDF>
      <cc:Work
         rdf:about="">
        <dc:format>image/svg+xml</dc:format>
        <dc:type
           rdf:resource="http://purl.org/dc/dcmitype/StillImage" />
      </cc:Work>
    </rdf:RDF>
  </metadata>
  <path
     id="path5"
     d="M 2.75,1 C 2.33276,1 2,1.33276 2,1.75 l 0,13.5 C 2,15.667192 2.332808,16 2.75,16 l 10.5,0 C 13.6676,16 14,15.6676 14,15.25 L 14,6 9.875,5.125 9,1 Z"
     style="fill:#6659fd" />
  <path
     id="path7"
     d="M 9,1 9,5.1666667 C 9,5.6250667 9.3749333,6 9.833333,6 L 14,6 Z"
     style="fill:#7a8cf5" />
  <path
     id="path9"
     d="M 7.7,6.4 5.9,12.25 4.74692,8.8 2.9,8.8 l 0,1.2 1.148436,0 1.8516,5.1 1.8,-5.7 1.2,3.6 1.5,-3.6 1.125,3.6 1.575,0 0,-1.2 -0.9,0 -1.8,-4.8 -1.5,3.3 z"
     style="fill:#ffffff" />
  <path
     id="path11"
     d="M 2.75,1 C 2.33276,1 2,1.33276 2,1.75 l 0,0.6 C 2,1.93276 2.33276,1.6 2.75,1.6 L 9,1.6 9,1 Z"
     style="fill:#ffffff;fill-opacity:0.10196001" />
</svg>

<?xml version="1.0" encoding="UTF-8" standalone="no"?>
<svg id="svg2" xmlns:rdf="http://www.w3.org/1999/02/22-rdf-syntax-ns#" xmlns="http://www.w3.org/2000/svg" height="16px" width="16px" version="1.1" xmlns:cc="http://creativecommons.org/ns#" viewBox="0 0 16 16" xmlns:dc="http://purl.org/dc/elements/1.1/">
 <metadata id="metadata17">
  <rdf:RDF>
   <cc:Work rdf:about="">
    <dc:format>image/svg+xml</dc:format>
    <dc:type rdf:resource="http://purl.org/dc/dcmitype/StillImage"/>
   </cc:Work>
  </rdf:RDF>
 </metadata>
 <path id="path5" fill="#6659fd" d="m2.75 1c-0.4172 0-0.75 0.3328-0.75 0.75v13.5c0 0.417 0.3328 0.75 0.75 0.75h10.5c0.418 0 0.75-0.332 0.75-0.75v-9.25l-4.125-0.875-0.875-4.125z"/>
 <path id="path7" fill="#7a8cf5" d="m9 1v4.1667c0 0.4584 0.3749 0.8333 0.8333 0.8333h4.1667z"/>
 <path id="path9" fill="#fff" d="m7.7 6.4-1.8 5.85-1.1531-3.45h-1.8469v1.2h1.1484l1.8516 5.1 1.8-5.7 1.2 3.6 1.5-3.6 1.125 3.6h1.575v-1.2h-0.9l-1.8-4.8-1.5 3.3z"/>
 <path id="path11" fill-opacity=".10196" fill="#fff" d="m2.75 1c-0.4172 0-0.75 0.3328-0.75 0.75v0.6c0-0.4172 0.3328-0.75 0.75-0.75h6.25v-0.6z"/>
</svg>
